X: 22829
T: Larch
R: reel
M: 4/4
K: Dmajor
|:E2CE A,ECE|FDFA d3A|B2dB AF3|BAGF EDCD|
EC3A,CEG|FDFAd3A|BdcB AF3|EDCE D3D:|
E2CE A,ECE|DEFA BAFA|dBBA Bcde|f2af e3f|
a3f edBc|dfed BAFA|A,D (3DDD A,DFA|BFAF D3B|

